project/images/official/editable/530.svg

<?xml version="1.0" encoding="UTF-8" standalone="no"?>
<svg
   width="66.12326pt"
   height="35.171947pt"
   viewBox="0 0 66.123261 35.171948"
   version="1.1"
   id="svg3513"
   xmlns="http://www.w3.org/2000/svg"
   xmlns:svg="http://www.w3.org/2000/svg">
  <defs
     id="defs3517" />
  <g
     id="layer2"
     style="display:inline"
     transform="matrix(0.74036996,0,0,1,3.1206337,-0.91530217)" />
  <g
     id="layer1"
     transform="scale(1.1101075,0.98310825)">
    <rect
       style="display:inline;fill:#ffffff;stroke:none;stroke-width:0;stroke-linecap:square;stroke-miterlimit:4;stroke-dasharray:none;stroke-opacity:1"
       id="rect3621"
       width="59.564735"
       height="35.776272"
       x="0"
       y="8.8817842e-16" />
    <rect
       style="display:inline;fill:none;stroke:#000000;stroke-width:0.164154;stroke-linecap:square;stroke-miterlimit:4;stroke-dasharray:none;stroke-opacity:1"
       id="rect3621-4"
       width="58.666401"
       height="34.468613"
       x="0.486384"
       y="0.729029" />
  </g>
  <g
     id="layer3"
     style="display:inline"
     transform="translate(3.1206337,-0.91530217)">
    <g
       id="surface1-8"
       transform="translate(2.963661,4.2986703)">
      <path
         style="fill:#211e1e;fill-opacity:1;fill-rule:nonzero;stroke:none"
         d="m 34.648438,23.308594 -6.457032,0.144531 0.07422,2.367187 L 29.34375,25.75 v 0.71875 l -2.945312,0.07031 -0.07031,-0.71875 1,-0.07031 -0.07031,-2.296875 H 25.96875 c -0.433594,0 -0.867188,0 -1.21875,-0.144531 -1.367188,-0.433594 -2.441406,-1.507813 -2.585938,-2.945313 -0.07031,-1 0.363282,-2.007812 1.074219,-2.722656 0.07031,-0.07031 0.214844,-0.144531 0.214844,-0.214844 l -0.785156,-1.152343 0.355469,-0.640626 c 0.07031,-0.289062 0.285156,-0.648437 0.285156,-0.9375 L 17.789062,11.328125 C 17.570312,11.183594 17.210938,10.96875 16.996094,10.75 16.78125,10.605469 16.5625,10.390625 16.417969,10.175781 16.203125,9.960938 15.777344,8.742188 15.777344,8.527344 L 14.625,10.75 l 0.289062,0.144531 c 1.722657,1.363281 2.296876,1.867188 3.015626,3.152344 0.929687,1.441406 1.363281,3.089844 1.507812,4.8125 0,0 -0.21875,0.214844 -0.289062,0.214844 l -0.503907,0.07031 C 18.789062,25.460938 12.546875,29.910156 6.589844,27.828125 0.773438,25.75 -1.308594,18.570312 2.496094,13.6875 L 2.136719,13.40625 C 1.925781,13.265625 1.78125,13.046875 1.925781,12.902344 l 0.28125,-0.285156 C 2.710938,12.113281 3.503906,11.390625 4.148438,10.96875 5.152344,10.320312 6.230469,9.816406 7.375,9.597656 9.3125,9.167969 11.257812,9.3125 13.121094,10.03125 c 0.144531,0 0.359375,0.07031 0.496094,0.144531 l 1.371093,-2.875 c -0.07422,0 -1.441406,0.359375 -1.578125,0.359375 -0.07031,0 -0.214844,0 -0.289062,-0.070312 C 13.050781,7.519531 12.976562,7.445312 12.976562,7.300781 V 5.148438 5.292969 c 0,0 -0.07031,-0.433594 0.144532,-0.640625 0.07422,-0.070313 0.289062,-0.144532 0.425781,-0.144532 0.359375,0 0.71875,0.074219 1.078125,0.144532 L 16.132812,4.933594 16.78125,3.5 c -0.722656,0 -1.578125,-0.863281 -1.578125,-1.792969 0,-0.71875 0.144531,-1.574219 1,-1.574219 0.214844,0 0.648437,-0.0742182 0.863281,-0.0742182 L 23.8125,0.132812 v 0.855469 h -6.816406 c -0.503906,0 -0.863282,0.289063 -0.863282,0.648438 0,0.648437 0.285157,0.789062 0.648438,0.863281 l 1.644531,0.425781 -1.070312,2.296875 C 17.5,5.148438 18.574219,4.859375 19.148438,4.933594 c 0.9375,0.144531 1.792968,0.359375 2.730468,1.007812 1.144532,0.71875 2.007813,2.152344 2.222656,3.226563 l 0.07031,1.726562 c 0,0.359375 0.07422,0.710938 0.21875,1.074219 0.359375,0.71875 1.214844,1.367188 2.152344,1.863281 0.503906,0.214844 1.503906,0.433594 2.078125,0.578125 0.507812,0.07031 1.722656,0.503906 1.9375,0.140625 L 35.800781,4.4375 c -0.144531,0 -1.292969,-0.289062 -1.65625,-0.433594 C 33.503906,3.714844 32.640625,3.355469 32.496094,2.707031 32.28125,2.140625 32.929688,1.347656 33.648438,1.5625 c 0.785156,0 1.9375,0.503906 2.867187,0.503906 0.789063,0.074219 2.367187,-0.144531 3.160156,-0.144531 0.933594,0 1.289063,1.433594 0.792969,2.082031 -0.144531,0.359375 -0.792969,0.855469 -1.511719,1 -0.425781,0.074219 -1.507812,0 -1.578125,-0.144531 l 2.222656,5.027344 C 39.820312,9.816406 40.105469,9.671875 40.394531,9.597656 41.324219,9.382812 42.40625,9.3125 43.40625,9.382812 c 2.511719,0.214844 4.878906,1.441407 6.609375,3.304688 0.785156,0.792969 1.433594,1.792969 1.71875,2.871094 0.07422,0.140625 0.07422,0.28125 0.07422,0.28125 l 1.070312,0.07422 c 0.07422,0 0.359375,0 0.433594,0.07031 0.07031,0.07422 0.07031,0.21875 0.07031,0.359375 v 4.089844 c 0,0.144531 0,0.289062 -0.144531,0.359375 l -1.574219,0.363281 c -1.152343,3.726562 -4.449218,6.386719 -8.332031,6.671875 -3.511719,0.21875 -6.816406,-1.503906 -8.683593,-4.519531"
         id="path3186" />
      <path
         style="fill:#ffffff;fill-opacity:1;fill-rule:nonzero;stroke:none"
         d="m 16.613281,19.742188 h -5.3125 c 0,0.714843 -0.929687,1.363281 -1.792969,1.363281 -1.289062,0 -2.371093,-1.503907 -1.722656,-2.585938 0,-0.144531 0.144532,-0.289062 0.21875,-0.433593 L 4.984375,13.78125 c -4.089844,3.519531 -2.871094,10.125 2.152344,11.988281 4.378906,1.648438 9.117187,-1.367187 9.476562,-6.027343"
         id="path3188" />
      <path
         style="fill:#ffffff;fill-opacity:1;fill-rule:nonzero;stroke:none"
         d="m 11.046875,18.203125 2.371094,-4.875 c 0.07031,0.07422 0.214843,0.136719 0.289062,0.207031 0.855469,0.503906 1.503907,1.296875 2.007813,2.089844 0.503906,0.855469 0.792968,1.863281 0.863281,2.792969 0.07031,0.144531 0.07031,0.289062 0.07031,0.359375 l -5.242188,0.144531 c 0,-0.07031 0,-0.214844 -0.07031,-0.429687 -0.07031,-0.144532 -0.214844,-0.289063 -0.289063,-0.289063"
         id="path3190" />
      <path
         style="fill:#ffffff;fill-opacity:1;fill-rule:nonzero;stroke:none"
         d="M 8.738281,17.628906 5.648438,13.320312 C 5.792969,13.25 5.863281,13.175781 6.007812,13.105469 c 0.855469,-0.503907 1.867188,-0.792969 2.875,-0.9375 1.070313,-0.0625 2.222657,0 3.222657,0.433593 0.07422,0.07031 0.21875,0.144532 0.289062,0.144532 l -2.296875,4.808594 c -0.07031,0 -0.289062,-0.144532 -0.648437,-0.144532 -0.214844,0 -0.496094,0 -0.710938,0.21875"
         id="path3192" />
      <path
         style="fill:#ffffff;fill-opacity:1;fill-rule:nonzero;stroke:none"
         d="m 32.007812,16.511719 4.664063,-10.40625 1.9375,4.234375 c -0.07031,0.07422 -0.214844,0.144531 -0.285156,0.214844 -1.148438,0.570312 -2.082031,1.363281 -2.941407,2.296874 -0.863281,1.003907 -1.65625,2.15625 -1.941406,3.441407 0,0.07422 -0.07422,0.21875 -0.07422,0.289062 l -1.359376,-0.07031"
         id="path3194" />
      <path
         style="fill:#ffffff;fill-opacity:1;fill-rule:nonzero;stroke:none"
         d="m 39.734375,12.851562 1.582031,3.730469 c 0,0 0,0.07422 -0.07031,0.07422 -0.214844,0 -0.648438,0.503906 -0.648438,0.789062 h -4.523437 c 0.144531,-1.144531 0.648437,-2.296874 1.363281,-3.160156 0.648438,-0.640625 1.4375,-1.144531 2.296875,-1.433594"
         id="path3196" />
      <path
         style="fill:#ffffff;fill-opacity:1;fill-rule:nonzero;stroke:none"
         d="m 49.726562,18.347656 -4.234374,-0.07422 c 0,-0.07031 -0.285157,-0.933594 -1.007813,-1.503907 -0.570313,-0.429687 -1.289063,-0.503906 -2.007813,-0.503906 l -1.71875,-3.800781 c 2.007813,-0.648438 4.230469,-0.289063 5.953126,0.929687 1.726562,1.152344 2.800781,2.945313 3.015624,4.953125"
         id="path3198" />
      <path
         style="fill:#ffffff;fill-opacity:1;fill-rule:nonzero;stroke:none"
         d="m 42.828125,22.105469 v 0.503906 h 2.371094 v 0.71875 h -7.828125 c 0.07422,0.136719 0.144531,0.28125 0.214844,0.355469 1.867187,2.4375 5.242187,2.941406 8.035156,1.726562 2.371094,-1.007812 4.027344,-3.234375 4.097656,-5.816406 0,-0.144531 0,-0.289062 0,-0.363281 h -4.167969 c 0,0.792969 -0.28125,1.515625 -0.785156,2.082031 -0.503906,0.503906 -1.222656,0.792969 -1.9375,0.792969"
         id="path3200" />
    </g>
  </g>
</svg>

<?xml version="1.0" encoding="UTF-8"?>
<svg xmlns="http://www.w3.org/2000/svg" xmlns:xlink="http://www.w3.org/1999/xlink" width="54pt" height="29pt" viewBox="0 0 54 29" version="1.1">
<g id="surface1">
<path style=" stroke:none;fill-rule:nonzero;fill:rgb(13.729858%,12.159729%,12.548828%);fill-opacity:1;" d="M 34.648438 23.308594 L 28.191406 23.453125 L 28.265625 25.820312 L 29.34375 25.75 L 29.34375 26.46875 L 26.398438 26.539062 L 26.328125 25.820312 L 27.328125 25.75 L 27.257812 23.453125 L 25.96875 23.453125 C 25.535156 23.453125 25.101562 23.453125 24.75 23.308594 C 23.382812 22.875 22.308594 21.800781 22.164062 20.363281 C 22.09375 19.363281 22.527344 18.355469 23.238281 17.640625 C 23.308594 17.570312 23.453125 17.496094 23.453125 17.425781 L 22.667969 16.273438 L 23.023438 15.632812 C 23.09375 15.34375 23.308594 14.984375 23.308594 14.695312 L 17.789062 11.328125 C 17.570312 11.183594 17.210938 10.96875 16.996094 10.75 C 16.78125 10.605469 16.5625 10.390625 16.417969 10.175781 C 16.203125 9.960938 15.777344 8.742188 15.777344 8.527344 L 14.625 10.75 L 14.914062 10.894531 C 16.636719 12.257812 17.210938 12.761719 17.929688 14.046875 C 18.859375 15.488281 19.292969 17.136719 19.4375 18.859375 C 19.4375 18.859375 19.21875 19.074219 19.148438 19.074219 L 18.644531 19.144531 C 18.789062 25.460938 12.546875 29.910156 6.589844 27.828125 C 0.773438 25.75 -1.308594 18.570312 2.496094 13.6875 L 2.136719 13.40625 C 1.925781 13.265625 1.78125 13.046875 1.925781 12.902344 L 2.207031 12.617188 C 2.710938 12.113281 3.503906 11.390625 4.148438 10.96875 C 5.152344 10.320312 6.230469 9.816406 7.375 9.597656 C 9.3125 9.167969 11.257812 9.3125 13.121094 10.03125 C 13.265625 10.03125 13.480469 10.101562 13.617188 10.175781 L 14.988281 7.300781 C 14.914062 7.300781 13.546875 7.660156 13.410156 7.660156 C 13.339844 7.660156 13.195312 7.660156 13.121094 7.589844 C 13.050781 7.519531 12.976562 7.445312 12.976562 7.300781 L 12.976562 5.148438 L 12.976562 5.292969 C 12.976562 5.292969 12.90625 4.859375 13.121094 4.652344 C 13.195312 4.582031 13.410156 4.507812 13.546875 4.507812 C 13.90625 4.507812 14.265625 4.582031 14.625 4.652344 L 16.132812 4.933594 L 16.78125 3.5 C 16.058594 3.5 15.203125 2.636719 15.203125 1.707031 C 15.203125 0.988281 15.347656 0.132812 16.203125 0.132812 C 16.417969 0.132812 16.851562 0.0585938 17.066406 0.0585938 L 23.8125 0.132812 L 23.8125 0.988281 L 16.996094 0.988281 C 16.492188 0.988281 16.132812 1.277344 16.132812 1.636719 C 16.132812 2.285156 16.417969 2.425781 16.78125 2.5 L 18.425781 2.925781 L 17.355469 5.222656 C 17.5 5.148438 18.574219 4.859375 19.148438 4.933594 C 20.085938 5.078125 20.941406 5.292969 21.878906 5.941406 C 23.023438 6.660156 23.886719 8.09375 24.101562 9.167969 L 24.171875 10.894531 C 24.171875 11.253906 24.246094 11.605469 24.390625 11.96875 C 24.75 12.6875 25.605469 13.335938 26.542969 13.832031 C 27.046875 14.046875 28.046875 14.265625 28.621094 14.410156 C 29.128906 14.480469 30.34375 14.914062 30.558594 14.550781 L 35.800781 4.4375 C 35.65625 4.4375 34.507812 4.148438 34.144531 4.003906 C 33.503906 3.714844 32.640625 3.355469 32.496094 2.707031 C 32.28125 2.140625 32.929688 1.347656 33.648438 1.5625 C 34.433594 1.5625 35.585938 2.066406 36.515625 2.066406 C 37.304688 2.140625 38.882812 1.921875 39.675781 1.921875 C 40.609375 1.921875 40.964844 3.355469 40.46875 4.003906 C 40.324219 4.363281 39.675781 4.859375 38.957031 5.003906 C 38.53125 5.078125 37.449219 5.003906 37.378906 4.859375 L 39.601562 9.886719 C 39.820312 9.816406 40.105469 9.671875 40.394531 9.597656 C 41.324219 9.382812 42.40625 9.3125 43.40625 9.382812 C 45.917969 9.597656 48.285156 10.824219 50.015625 12.6875 C 50.800781 13.480469 51.449219 14.480469 51.734375 15.558594 C 51.808594 15.699219 51.808594 15.839844 51.808594 15.839844 L 52.878906 15.914062 C 52.953125 15.914062 53.238281 15.914062 53.3125 15.984375 C 53.382812 16.058594 53.382812 16.203125 53.382812 16.34375 L 53.382812 20.433594 C 53.382812 20.578125 53.382812 20.722656 53.238281 20.792969 L 51.664062 21.15625 C 50.511719 24.882812 47.214844 27.542969 43.332031 27.828125 C 39.820312 28.046875 36.515625 26.324219 34.648438 23.308594 "/>
<path style=" stroke:none;fill-rule:nonzero;fill:rgb(100%,100%,100%);fill-opacity:1;" d="M 16.613281 19.742188 L 11.300781 19.742188 C 11.300781 20.457031 10.371094 21.105469 9.507812 21.105469 C 8.21875 21.105469 7.136719 19.601562 7.785156 18.519531 C 7.785156 18.375 7.929688 18.230469 8.003906 18.085938 L 4.984375 13.78125 C 0.894531 17.300781 2.113281 23.90625 7.136719 25.769531 C 11.515625 27.417969 16.253906 24.402344 16.613281 19.742188 "/>
<path style=" stroke:none;fill-rule:nonzero;fill:rgb(100%,100%,100%);fill-opacity:1;" d="M 11.046875 18.203125 L 13.417969 13.328125 C 13.488281 13.402344 13.632812 13.464844 13.707031 13.535156 C 14.5625 14.039062 15.210938 14.832031 15.714844 15.625 C 16.21875 16.480469 16.507812 17.488281 16.578125 18.417969 C 16.648438 18.5625 16.648438 18.707031 16.648438 18.777344 L 11.40625 18.921875 C 11.40625 18.851562 11.40625 18.707031 11.335938 18.492188 C 11.265625 18.347656 11.121094 18.203125 11.046875 18.203125 "/>
<path style=" stroke:none;fill-rule:nonzero;fill:rgb(100%,100%,100%);fill-opacity:1;" d="M 8.738281 17.628906 L 5.648438 13.320312 C 5.792969 13.25 5.863281 13.175781 6.007812 13.105469 C 6.863281 12.601562 7.875 12.3125 8.882812 12.167969 C 9.953125 12.105469 11.105469 12.167969 12.105469 12.601562 C 12.179688 12.671875 12.324219 12.746094 12.394531 12.746094 L 10.097656 17.554688 C 10.027344 17.554688 9.808594 17.410156 9.449219 17.410156 C 9.234375 17.410156 8.953125 17.410156 8.738281 17.628906 "/>
<path style=" stroke:none;fill-rule:nonzero;fill:rgb(100%,100%,100%);fill-opacity:1;" d="M 32.007812 16.511719 L 36.671875 6.105469 L 38.609375 10.339844 C 38.539062 10.414062 38.394531 10.484375 38.324219 10.554688 C 37.175781 11.125 36.242188 11.917969 35.382812 12.851562 C 34.519531 13.855469 33.726562 15.007812 33.441406 16.292969 C 33.441406 16.367188 33.367188 16.511719 33.367188 16.582031 L 32.007812 16.511719 "/>
<path style=" stroke:none;fill-rule:nonzero;fill:rgb(100%,100%,100%);fill-opacity:1;" d="M 39.734375 12.851562 L 41.316406 16.582031 C 41.316406 16.582031 41.316406 16.65625 41.246094 16.65625 C 41.03125 16.65625 40.597656 17.160156 40.597656 17.445312 L 36.074219 17.445312 C 36.21875 16.300781 36.722656 15.148438 37.4375 14.285156 C 38.085938 13.644531 38.875 13.140625 39.734375 12.851562 "/>
<path style=" stroke:none;fill-rule:nonzero;fill:rgb(100%,100%,100%);fill-opacity:1;" d="M 49.726562 18.347656 L 45.492188 18.273438 C 45.492188 18.203125 45.207031 17.339844 44.484375 16.769531 C 43.914062 16.339844 43.195312 16.265625 42.476562 16.265625 L 40.757812 12.464844 C 42.765625 11.816406 44.988281 12.175781 46.710938 13.394531 C 48.4375 14.546875 49.511719 16.339844 49.726562 18.347656 "/>
<path style=" stroke:none;fill-rule:nonzero;fill:rgb(100%,100%,100%);fill-opacity:1;" d="M 42.828125 22.105469 L 42.828125 22.609375 L 45.199219 22.609375 L 45.199219 23.328125 L 37.371094 23.328125 C 37.445312 23.464844 37.515625 23.609375 37.585938 23.683594 C 39.453125 26.121094 42.828125 26.625 45.621094 25.410156 C 47.992188 24.402344 49.648438 22.175781 49.71875 19.59375 C 49.71875 19.449219 49.71875 19.304688 49.71875 19.230469 L 45.550781 19.230469 C 45.550781 20.023438 45.269531 20.746094 44.765625 21.3125 C 44.261719 21.816406 43.542969 22.105469 42.828125 22.105469 "/>
</g>
</svg>
